mac/Install/share/qgis/svg/logos/qgis-logo-made-with-color.svg

<?xml version="1.0" encoding="UTF-8" standalone="no"?>
<svg
   xmlns:dc="http://purl.org/dc/elements/1.1/"
   xmlns:cc="http://creativecommons.org/ns#"
   xmlns:rdf="http://www.w3.org/1999/02/22-rdf-syntax-ns#"
   xmlns:svg="http://www.w3.org/2000/svg"
   xmlns="http://www.w3.org/2000/svg"
   xmlns:xlink="http://www.w3.org/1999/xlink"
   id="svg27"
   version="1.1"
   width="369.273"
   height="172.301">
  <metadata
     id="metadata31">
    <rdf:RDF>
      <cc:Work
         rdf:about="">
        <dc:format>image/svg+xml</dc:format>
        <dc:type
           rdf:resource="http://purl.org/dc/dcmitype/StillImage" />
        <dc:title></dc:title>
      </cc:Work>
    </rdf:RDF>
  </metadata>
  <defs
     id="defs3">
    <linearGradient
       xlink:href="#a"
       id="c"
       gradientUnits="userSpaceOnUse"
       x1="188.753"
       y1="250.235"
       x2="186.512"
       y2="102.936"
       gradientTransform="translate(-100.206 -87.199)" />
    <linearGradient
       gradientUnits="userSpaceOnUse"
       y2="1.1185583"
       x2="187.37103"
       y1="171.93472"
       x1="187.37103"
       id="linearGradient934"
       xlink:href="#a" />
  </defs>
  <linearGradient
     id="b"
     gradientUnits="userSpaceOnUse"
     x1="234.47"
     y1="250.034"
     x2="232.211"
     y2="101.498">
    <stop
       id="stop5"
       stop-color="#589632"
       offset="0" />
    <stop
       id="stop7"
       stop-color="#93b023"
       offset="1" />
  </linearGradient>
  <linearGradient
     id="a"
     gradientUnits="userSpaceOnUse"
     x1="188.753"
     y1="250.235"
     x2="186.512"
     y2="102.936">
    <stop
       id="stop10"
       stop-color="#589632"
       offset="0" />
    <stop
       id="stop12"
       stop-color="#93b023"
       offset="1" />
  </linearGradient>
  <path
     style="fill-opacity:1;fill:url(#linearGradient934)"
     id="path15"
     d="M 0 0 L 0 172.30078 L 369.27344 172.30078 L 369.27344 0 L 0 0 z M 320.26953 5.7363281 L 329.45508 5.7363281 L 329.45508 45.140625 L 320.26953 45.140625 L 320.26953 41.369141 C 318.25153 44.024141 315.33002 45.509766 311.66602 45.509766 C 303.59402 45.509766 298.28516 39.563313 298.28516 30.695312 C 298.28516 21.933312 303.54208 16.146484 311.45508 16.146484 C 315.22508 16.146484 318.25153 17.632109 320.26953 20.287109 L 320.26953 5.7363281 z M 7.6328125 7.5703125 L 167.99609 7.5703125 L 167.99609 165.54688 L 7.6328125 165.54688 L 7.6328125 7.5703125 z M 87.234375 11.566406 C 43.512375 11.566406 10.722656 42.129875 10.722656 83.421875 C 10.722656 124.91587 43.513375 156.08789 87.234375 156.08789 C 98.521375 156.08789 109.06858 154.01238 118.51758 150.23438 L 97.845703 129.66406 A 45.146 45.146 0 0 1 87.701172 130.82227 C 62.696172 130.82227 41.431641 110.25961 41.431641 83.599609 C 41.431641 56.939609 62.462172 36.830078 87.701172 36.830078 C 112.94117 36.830078 133.03711 56.939562 133.03711 83.601562 C 133.03711 87.936562 132.49705 92.107547 131.49805 96.060547 L 154.64258 119.20117 C 160.60958 108.74517 163.94727 96.588875 163.94727 83.421875 C 163.94727 42.331875 131.15838 11.566406 87.234375 11.566406 z M 232.29297 16.091797 C 236.96597 16.091797 240.41756 18.535312 241.85156 22.570312 C 243.70956 18.322312 247.21441 16.144797 251.94141 16.091797 C 258.20741 16.091797 262.24219 20.392984 262.24219 27.083984 L 262.24219 45.138672 L 253.10938 45.138672 L 253.10938 29.632812 C 253.10938 26.233812 251.19792 24.162109 248.16992 24.162109 C 244.71992 24.267109 242.5957 27.083938 242.5957 30.960938 L 242.5957 45.138672 L 233.4082 45.138672 L 233.4082 29.632812 C 233.4082 26.233812 231.55044 24.162109 228.52344 24.162109 C 225.01944 24.267109 222.83984 27.083938 222.83984 30.960938 L 222.83984 45.138672 L 213.70703 45.138672 L 213.70703 16.515625 L 222.83984 16.515625 L 222.83984 21.242188 C 224.80484 17.844188 228.09797 16.144797 232.29297 16.091797 z M 281.63086 16.091797 C 289.49086 16.091797 294.05637 19.969266 294.10938 26.447266 L 294.10938 45.140625 L 285.13672 45.140625 L 285.13672 41.847656 C 283.27772 44.289656 280.25005 45.564453 276.37305 45.564453 C 270.26605 45.564453 266.55078 41.848797 266.55078 36.591797 C 266.55078 31.174797 270.42697 27.988547 277.54297 27.935547 L 285.08203 27.935547 L 285.08203 27.509766 C 285.08203 24.694766 283.22481 22.994141 279.50781 22.994141 C 277.11781 22.994141 273.98403 23.844766 270.95703 25.384766 L 268.35547 19.330078 C 272.81647 17.260078 276.85186 16.09375 281.63086 16.09375 L 281.63086 16.091797 z M 349.55859 16.197266 C 359.64859 16.197266 364.63895 22.835875 364.00195 33.296875 L 343.875 33.296875 C 344.778 36.694875 347.22114 38.607422 350.61914 38.607422 C 353.11514 38.607422 355.5587 37.596547 357.4707 35.685547 L 362.30273 40.412109 C 359.38273 43.598109 355.08122 45.457031 349.82422 45.457031 C 340.47822 45.457031 334.63672 39.61425 334.63672 30.90625 C 334.63672 22.03725 340.68959 16.197266 349.55859 16.197266 z M 349.66406 22.570312 C 346.47806 22.570312 344.3008 24.906422 343.7168 28.357422 L 355.1875 28.357422 C 355.1875 24.853422 352.95706 22.570312 349.66406 22.570312 z M 313.89648 23.472656 C 310.07348 23.472656 307.5237 26.49925 307.4707 30.90625 C 307.5237 35.31425 310.07348 38.394531 313.89648 38.394531 C 317.72048 38.394531 320.26953 35.31425 320.26953 30.90625 C 320.26953 26.49925 317.72048 23.472656 313.89648 23.472656 z M 285.08203 32.869141 L 279.29492 32.871094 C 276.53392 32.871094 275.15234 33.827172 275.15234 35.951172 C 275.15234 38.022172 276.6395 39.349609 279.1875 39.349609 C 282.0555 39.349609 284.49703 37.755922 285.08203 35.419922 L 285.08203 32.869141 z M 297.98047 56.554688 C 300.79547 56.554688 302.8125 58.574672 302.8125 61.388672 C 302.8125 64.255672 300.79547 66.273437 297.98047 66.273438 C 295.16647 66.273438 293.14844 64.255672 293.14844 61.388672 C 293.14844 58.573672 295.16647 56.554688 297.98047 56.554688 z M 333.24609 58.839844 L 342.43359 58.839844 L 342.43359 74.345703 C 344.45059 70.946703 347.79792 69.246359 352.04492 69.193359 C 358.36492 69.193359 362.50586 73.494547 362.50586 80.185547 L 362.50586 98.242188 L 353.31836 98.242188 L 353.31836 82.734375 C 353.31836 79.389375 351.40744 77.318359 348.27344 77.318359 C 344.66344 77.318359 342.43359 80.186234 342.43359 84.115234 L 342.43359 98.242188 L 333.24609 98.242188 L 333.24609 58.839844 z M 311.17969 62.980469 L 320.3125 62.980469 L 320.3125 70.892578 L 327.80078 70.892578 L 327.80078 76.947266 L 320.3125 76.947266 L 320.3125 88.152344 C 320.3125 90.382344 321.26875 91.338156 322.96875 91.285156 C 323.92475 91.285156 325.14539 90.912125 326.52539 90.328125 L 328.33203 96.701172 C 326.26103 97.923172 323.44655 98.666016 320.68555 98.666016 C 315.16255 98.666016 311.17969 95.532938 311.17969 89.585938 L 311.17969 76.947266 L 307.19727 76.947266 L 307.19727 70.947266 L 311.17969 70.947266 L 311.17969 62.980469 z M 239.64844 69.619141 L 248.99414 69.619141 L 254.88867 89.425781 L 260.62305 69.619141 L 269.38477 69.619141 L 275.2793 89.425781 L 281.06836 69.619141 L 290.04297 69.619141 L 279.58008 98.242188 L 270.5 98.242188 L 264.87109 80.080078 L 259.24219 98.242188 L 250.10938 98.242188 L 239.64844 69.619141 z M 293.36133 69.619141 L 302.49414 69.619141 L 302.49414 98.242188 L 293.36133 98.242188 L 293.36133 69.619141 z M 205.25781 110.14062 C 221.75781 110.14062 234.07422 121.69781 234.07422 137.13281 C 234.07422 142.07881 232.82012 146.64427 230.57812 150.57227 L 221.88477 141.88086 C 222.25977 140.39586 222.46289 138.82822 222.46289 137.19922 C 222.46289 127.18422 214.91459 119.63086 205.43359 119.63086 C 195.95359 119.63086 188.05078 127.18522 188.05078 137.19922 C 188.05078 147.21422 196.04059 154.9375 205.43359 154.9375 A 16.96 16.96 0 0 0 209.24414 154.50391 L 217.00977 162.23047 C 213.45977 163.65047 209.49781 164.42969 205.25781 164.42969 C 188.83381 164.42969 176.51562 152.71981 176.51562 137.13281 C 176.51562 121.62181 188.83381 110.14062 205.25781 110.14062 z M 344.11328 110.45898 C 351.55128 110.45898 358.98778 112.73456 364.30078 116.22656 L 359.67188 126.16797 C 354.05687 122.82797 347.37695 120.70508 343.12695 120.70508 C 339.10495 120.70508 336.37305 122.14725 336.37305 125.03125 C 336.37305 134.82225 364.68147 129.35742 364.60547 148.48242 C 364.60547 158.88042 355.57355 164.49609 343.81055 164.49609 C 335.08155 164.49609 326.35342 161.15727 320.35742 156.07227 L 325.13867 146.28125 C 330.60367 151.13825 338.34494 154.25 343.96094 154.25 C 348.89494 154.25 351.85547 152.43002 351.85547 149.16602 C 351.85547 139.14802 323.54492 144.99192 323.54492 126.16992 C 323.54492 116.53092 331.81828 110.45898 344.11328 110.45898 z M 269.58398 110.61133 C 277.47698 110.61133 285.52116 113.64656 290.91016 118.35156 L 284.15625 126.92773 C 280.20925 123.28473 274.74498 121.00781 269.58398 121.00781 C 260.17198 121.00781 252.88672 128.21969 252.88672 137.55469 C 252.88672 146.96469 260.25016 154.17578 269.66016 154.17578 C 272.84816 154.17578 276.64259 153.03702 280.05859 151.29102 L 280.05859 137.32617 L 290.45508 137.32617 L 290.45508 157.74219 C 284.83908 161.84119 276.26239 164.64844 268.90039 164.64844 C 252.81039 164.64844 240.5918 152.96169 240.5918 137.55469 C 240.5918 122.22369 253.03798 110.61133 269.58398 110.61133 z M 300.92969 110.99023 L 312.91992 110.99023 L 312.91992 164.11719 L 300.92969 164.11719 L 300.92969 110.99023 z M 200.95898 133.89453 L 209.33984 133.89453 L 216.17773 140.65625 L 208.09766 140.65625 L 208.09766 149.05859 L 200.95898 141.94531 L 200.95898 133.89453 z M 211.47852 144.03711 L 219.59766 144.03711 L 234.01562 158.29102 L 234.01562 166.19922 L 225.29492 166.19922 L 211.47852 152.42773 L 211.47852 144.03711 z " />
  <path
     id="path17"
     d="M98.1 74.801H75.794v21.433l19 18.937v-22.37h21.513z"
     fill="#ee7913" />
  <path
     id="path19"
     d="M204 189v22.34L240.782 248H264v-21.054L225.617 189z"
     fill="url(#b)"
     transform="translate(-100.206 -87.199)" />
  <path
     id="path21"
     d="M116.307 92.801H94.794v22.37l9 8.97v-22.34h21.617z"
     fill="#f0e64a" />
  <path
     id="path25"
     fill-opacity=".173"
     fill="#fff"
     d="M75.794 74.801l88 86v-21.054L125.411 101.8l-9.103-9-18.207-18z" />
</svg>

<svg xmlns="http://www.w3.org/2000/svg" xmlns:xlink="http://www.w3.org/1999/xlink" height="172.301" width="369.273"><defs><linearGradient gradientTransform="translate(-100.206 -87.199)" y2="102.936" x2="186.512" y1="250.235" x1="188.753" gradientUnits="userSpaceOnUse" id="c" xlink:href="#a"/></defs><linearGradient y2="101.498" x2="232.211" y1="250.034" x1="234.47" gradientUnits="userSpaceOnUse" id="b"><stop offset="0" stop-color="#589632"/><stop offset="1" stop-color="#93b023"/></linearGradient><linearGradient y2="102.936" x2="186.512" y1="250.235" x1="188.753" gradientUnits="userSpaceOnUse" id="a"><stop offset="0" stop-color="#589632"/><stop offset="1" stop-color="#93b023"/></linearGradient><path d="M0 0v172.3h369.273V0zm320.27 5.736h9.185V45.14h-9.185v-3.77c-2.018 2.655-4.94 4.14-8.604 4.14-8.072 0-13.38-5.946-13.38-14.814 0-8.762 5.257-14.55 13.17-14.55 3.77 0 6.796 1.487 8.814 4.142zM7.633 7.57h160.363v157.977H7.633zm224.66 8.522c4.673 0 8.125 2.443 9.559 6.478 1.858-4.248 5.363-6.425 10.09-6.478 6.266 0 10.3 4.301 10.3 10.992v18.055h-9.133V29.633c0-3.399-1.912-5.47-4.94-5.47-3.45.105-5.573 2.921-5.573 6.798v14.178h-9.188V29.633c0-3.399-1.858-5.47-4.885-5.47-3.504.105-5.683 2.921-5.683 6.798v14.178h-9.133V16.516h9.133v4.726c1.965-3.398 5.258-5.097 9.453-5.15zm49.338 0c7.86 0 12.425 3.877 12.478 10.355V45.14h-8.972v-3.293c-1.859 2.442-4.887 3.717-8.764 3.717-6.107 0-9.822-3.716-9.822-8.973 0-5.417 3.876-8.603 10.992-8.656h7.539v-.426c0-2.815-1.857-4.514-5.574-4.514-2.39 0-5.524.85-8.551 2.39l-2.602-6.054c4.461-2.07 8.497-3.238 13.276-3.238zm67.928.105c10.09 0 15.08 6.639 14.443 17.1h-20.127c.903 3.398 3.346 5.31 6.744 5.31 2.496 0 4.94-1.01 6.852-2.921l4.832 4.726c-2.92 3.186-7.222 5.045-12.479 5.045-9.346 0-15.187-5.842-15.187-14.55 0-8.869 6.053-14.71 14.922-14.71zm.105 6.373c-3.186 0-5.363 2.336-5.947 5.787h11.47c0-3.504-2.23-5.787-5.523-5.787zm-35.768.903c-3.823 0-6.372 3.026-6.425 7.433.053 4.408 2.602 7.489 6.425 7.489 3.824 0 6.374-3.081 6.374-7.489 0-4.407-2.55-7.433-6.374-7.433zm-34.601 9.398c-2.761 0-4.143.956-4.143 3.08 0 2.071 1.487 3.399 4.035 3.399 2.868 0 5.31-1.594 5.895-3.93V32.87zm18.685 23.684c2.815 0 4.832 2.02 4.832 4.834 0 2.867-2.017 4.884-4.832 4.884-2.814 0-4.832-2.017-4.832-4.884 0-2.815 2.018-4.834 4.832-4.834zm35.266 2.285h9.188v15.506c2.017-3.399 5.363-5.1 9.61-5.153 6.32 0 10.462 4.302 10.462 10.993v18.056h-9.188V82.734c0-3.345-1.911-5.416-5.045-5.416-3.61 0-5.84 2.868-5.84 6.797v14.127h-9.187zm-22.066 4.14h9.132v7.913h7.489v6.054h-7.489v11.205c0 2.23.957 3.186 2.657 3.133.956 0 2.176-.373 3.556-.957l1.807 6.373c-2.071 1.222-4.885 1.965-7.646 1.965-5.523 0-9.506-3.133-9.506-9.08V76.947h-3.983v-6h3.983zm-71.532 6.64h9.346l5.895 19.806 5.734-19.807h8.762l5.894 19.807 5.79-19.807h8.974L279.58 98.242h-9.08l-5.629-18.162-5.629 18.162h-9.133zm53.713 0h9.133v28.622h-9.133zm-88.103 40.52c16.5 0 28.816 11.558 28.816 26.993 0 4.946-1.254 9.512-3.496 13.44l-8.693-8.692c.375-1.485.578-3.053.578-4.682 0-10.015-7.549-17.568-17.03-17.568-9.48 0-17.382 7.554-17.382 17.568 0 10.015 7.99 17.739 17.383 17.739a16.96 16.96 0 003.81-.434l7.766 7.726c-3.55 1.42-7.512 2.2-11.752 2.2-16.424 0-28.742-11.71-28.742-27.297 0-15.511 12.318-26.992 28.742-26.992zm138.855.319c7.438 0 14.875 2.276 20.188 5.768l-4.63 9.941c-5.615-3.34-12.294-5.463-16.544-5.463-4.022 0-6.754 1.442-6.754 4.326 0 9.791 28.308 4.326 28.232 23.451 0 10.398-9.031 16.014-20.794 16.014-8.729 0-17.458-3.339-23.454-8.424l4.782-9.79c5.465 4.857 13.206 7.968 18.822 7.968 4.934 0 7.894-1.82 7.894-5.084 0-10.018-28.31-4.174-28.31-22.996 0-9.639 8.273-15.711 20.568-15.711zm-74.529.152c7.893 0 15.937 3.035 21.326 7.74l-6.754 8.577c-3.947-3.643-9.411-5.92-14.572-5.92-9.412 0-16.697 7.212-16.697 16.547 0 9.41 7.363 16.62 16.773 16.62 3.188 0 6.983-1.138 10.399-2.884v-13.965h10.396v20.416c-5.616 4.099-14.193 6.906-21.555 6.906-16.09 0-28.308-11.686-28.308-27.093 0-15.331 12.446-26.944 28.992-26.944zm31.346.38h11.99v53.126h-11.99zm-99.971 22.904h8.38l6.839 6.761h-8.08v8.403l-7.139-7.114zm10.52 10.142h8.119l14.418 14.254v7.908h-8.721l-13.816-13.771z" fill="#5b9731"/><path fill="#ee7913" d="M98.1 74.801H75.794v21.433l19 18.937v-22.37h21.513z"/><path transform="translate(-100.206 -87.199)" fill="url(#b)" d="M204 189v22.34L240.782 248H264v-21.054L225.617 189z"/><path fill="#f0e64a" d="M116.307 92.801H94.794v22.37l9 8.97v-22.34h21.617z"/><path d="M97.846 129.665a45.146 45.146 0 01-10.144 1.157c-25.005 0-46.27-20.562-46.27-47.222s21.031-46.769 46.27-46.769c25.24 0 45.336 20.108 45.336 46.77 0 4.335-.54 8.507-1.539 12.46l23.144 23.14c5.967-10.456 9.305-22.612 9.305-35.779 0-41.09-32.79-71.856-76.714-71.856-43.722 0-76.512 30.564-76.512 71.856 0 41.494 32.791 72.666 76.512 72.666 11.287 0 21.835-2.076 31.284-5.854z" fill="url(#c)"/><path d="M75.794 74.801l88 86v-21.054L125.411 101.8l-9.103-9-18.207-18z" fill="#fff" fill-opacity=".173"/></svg>
